outputs/icons/action/renew_round.svg

<svg width="1200" height="1200" viewBox="0 0 1200 1200" fill="none" xmlns="http://www.w3.org/2000/svg"><g clip-path="url(#clip0_223_1919)"><path d="M600 300.009V389.509C600 412.009 627 423.01 642.5 407.009L782 267.509C792 257.509 792 242.009 782 232.009L642.5 92.509C627 77.009 600 88.009 600 110.509V200.009C379 200.009 200 379.009 200 600.01C200 652.01 210 702.01 228.5 747.51C242 781.01 285 790.01 310.5 764.51C324 751.01 329.5 730.51 322 712.51C307.5 678.01 300 639.51 300 600.01C300 434.509 434.5 300.009 600 300.009ZM889.5 435.509C876 449.009 870.5 470.01 878 487.51C892 522.51 900 560.51 900 600.01C900 765.51 765.5 900.01 600 900.01V810.51C600 788.01 573 777.01 557.5 793.01L418 932.51C408 942.51 408 958.01 418 968.01L557.5 1107.51C573 1123.01 600 1112.01 600 1090.01V1000.01C821 1000.01 1000 821.01 1000 600.01C1000 548.01 990 498.01 971.5 452.509C958 419.009 915 410.009 889.5 435.509Z" fill="#1D1E23"/></g><defs><clipPath id="clip0_223_1919"><path width="24" fill="white" d="M0 0H1200V1200H0V0z"/></clipPath></defs></svg>

<svg xmlns="http://www.w3.org/2000/svg" width="1200" height="1200" fill="none"><g clip-path="url(#a)"><path fill="#000" d="M600 300.009v89.5c0 22.5 27 33.5 42.5 17.5l139.5-139.5c10-10 10-25.5 0-35.5l-139.5-139.5c-15.5-15.5-42.5-4.5-42.5 18v89.501c-221 0-400 178.999-400 400 0 52 10 102 28.5 147.5 13.5 33.5 56.5 42.5 82 17 13.5-13.5 19-34 11.5-52-14.5-34.5-22-73-22-112.5 0-165.501 134.5-300.001 300-300.001m289.5 135.5c-13.5 13.5-19 34.5-11.5 52.001 14 35 22 73 22 112.5 0 165.5-134.5 300-300 300v-89.5c0-22.5-27-33.5-42.5-17.5L418 932.51c-10 10-10 25.5 0 35.5l139.5 139.5c15.5 15.5 42.5 4.5 42.5-17.5v-90c221 0 400-179 400-400 0-52-10-102.001-28.5-147.501-13.5-33.5-56.5-42.5-82-17"/></g><defs><clipPath id="a"><path fill="#fff" d="M0 0h1200v1200H0z"/></clipPath></defs></svg>
